app/assets/images/flame3.svg

<svg xmlns="http://www.w3.org/2000/svg" width="725" height="850" fill="none"><path fill="#fe6323" d="M308.844 60.939 320 20.777l-38.25 27-8.833 6.235a214 214 0 0 0-50.417 50.015L212 118.652l-20 33.125-18.5 37.25a236.7 236.7 0 0 0-23.191 78.576l-.559 4.924-5.25 46.25v30.291a300 300 0 0 0 4.719 52.999l5.781 32.21-16.944-28.24A207.4 207.4 0 0 1 108.5 299.331v-88.054L91 235.027l-17.5 23.75-18 29.5-14.5 30.5-10.5 28.5-10.5 28.5-7.75 29.25L10.138 413a267 267 0 0 0-7.636 94.356L4.5 527.777l5.75 28a292 292 0 0 0 16.823 54.353l1.427 3.397 2.292 4.94a300 300 0 0 0 29.23 49.794L70 682.027l29 38.75 19.918 21.013a300 300 0 0 0 56.979 46.912l1.725 1.095a300 300 0 0 0 39.323 21.03l10.055 4.45 10.611 4.697a102.87 102.87 0 0 0 57.051 7.642l7.676-1.163a205.9 205.9 0 0 0 64.764-21.217l13.408-7.028a227.4 227.4 0 0 0 76.969-65.816l4.916-6.62a288 288 0 0 0 24.919-40.037L495 670.777l15.5-39.5 6.5-24.5 4-23 .985-6.894A300 300 0 0 0 525 534.457v-6.68l-2.366-31.354a300 300 0 0 0-6.367-42.831l-.517-2.315-.463-2.07a300 300 0 0 0-12.644-41.934l-2.393-6.246-.861-2.246a300 300 0 0 0-22.89-47.006l-.749-1.248-14.25-23.75-15.5-20.75-2.168-2.903a278.4 278.4 0 0 0-29.332-33.347l-16-15.5-46.166-44.677a196 196 0 0 1-27.871-33.779l-4.746-7.278a107.09 107.09 0 0 1-16.984-67.821l1.017-11.637a156 156 0 0 1 5.094-28.146"/><path fill="#fe6323" d="M400.273 42.227 388.543 0l40.217 28.389 9.287 6.555a225 225 0 0 1 53.01 52.587l11.04 15.378 21.029 34.828 19.451 39.166a248.8 248.8 0 0 1 24.384 82.617l.588 5.177 5.52 48.629v33.221c0 17.772-1.58 35.508-4.719 53l-6.321 35.219 17.815-29.693a218.07 218.07 0 0 0 31.076-112.194v-92.582l18.4 24.972 18.4 24.971 18.926 31.017 15.245 32.069 11.04 29.965 11.04 29.966 8.149 30.754 2.221 8.383a280.6 280.6 0 0 1 8.11 45.412 280.6 280.6 0 0 1-.082 53.797l-2.1 21.471-6.046 29.44-.136.663a300 300 0 0 1-17.29 55.861l-1.763 4.196-3.038 6.547a300 300 0 0 1-29.229 49.795L651.4 695.257 620.909 736l-22.258 23.481a300 300 0 0 1-56.979 46.912l-4.4 2.792a300 300 0 0 1-39.323 21.03l-11.623 5.145a165.9 165.9 0 0 1-67.138 14.194H390.79a300 300 0 0 1-58.026-5.665L289.5 835.36l-30.352-8.531a43.73 43.73 0 0 1-28.376-24.906 43.7 43.7 0 0 0-4.353-7.842l-.826-1.184c-9.988-14.305-12.932-32.495-8.078-49.253 4.14-14.29 2.691-29.735-4.109-42.968l-8.863-17.247-16.297-41.532-6.835-25.76-4.205-24.183-1.191-8.334A300 300 0 0 1 173 541.194v-8.12l2.572-34.079a300 300 0 0 1 6.367-42.832l.787-3.523.732-3.279a300 300 0 0 1 12.644-41.934l2.921-7.621 1.388-3.622a300 300 0 0 1 22.89-47.006l1.482-2.469 14.983-24.972 16.297-21.817 2.28-3.052a293 293 0 0 1 30.84-35.062l16.823-16.297 48.54-46.975a206 206 0 0 0 29.304-35.516l4.991-7.653a112.6 112.6 0 0 0 17.857-71.31l-1.069-12.234a164 164 0 0 0-5.356-29.594"/><path fill="#ffa624" d="m435.104 281.552-7.437-26.775 24.38 17.21a193.6 193.6 0 0 1 61.519 71.589l2.719 5.438a269.9 269.9 0 0 1 26.774 90.269l1.608 14.161v37l-7 51.333L575 490.444l7.075-11.588a300 300 0 0 0 21.237-41.823L622 391.777l8.333 29 2.53 10.777a300 300 0 0 1 6.954 44.301L641 490.444v71.667l-3 30.666-3.339 16.261A219.7 219.7 0 0 1 622 649.944a237.5 237.5 0 0 1-23.145 39.429l-4.522 6.238L575 721.444l-12.693 13.391a206.9 206.9 0 0 1-66.405 46.849l-6.235 2.76a94.4 94.4 0 0 1-35.516 10.874l-9.651.959-34 3.5h-83.233c-2.285 0-4.566-.192-6.819-.574l-15.617-2.649c-10.585-1.796-18.331-10.966-18.331-21.703 0-4.289 1.253-8.484 3.605-12.071l18.431-28.105A46.31 46.31 0 0 0 311 688.111l-10.333-26.334-4.334-16.333-2.666-15.333-.027-.188a263 263 0 0 1-2.64-37.146l1.459-19.326a222 222 0 0 1 4.708-31.674 219 219 0 0 1 9.244-30.656l1.089-2.844.226-.591a211 211 0 0 1 16.107-33.075l9.5-15.834 10.334-13.833 1.445-1.935a185.6 185.6 0 0 1 19.555-22.232l10.666-10.333 30.778-29.785a130.7 130.7 0 0 0 18.58-22.519l3.165-4.852a71.42 71.42 0 0 0 11.322-45.214l-.678-7.758a104 104 0 0 0-3.396-18.764"/><path fill="#ffa624" d="m327.333 290.777 20.167-48-22.879 9.103a161.432 161.432 0 0 0-71.456 55.846l-5.153 7.178a230 230 0 0 0-18.867 31.25l-1.43 2.86a269.9 269.9 0 0 0-26.774 90.269l-1.608 14.161v37l7 51.333L169 490.444l-7.075-11.588a300 300 0 0 1-21.237-41.823L122 391.777l-8.333 29-2.53 10.777a300 300 0 0 0-6.954 44.301L103 490.444v71.667l3 30.666 3.339 16.261A219.7 219.7 0 0 0 122 649.944a237.5 237.5 0 0 0 23.145 39.429l4.522 6.238L169 721.444l12.693 13.391a206.9 206.9 0 0 0 66.405 46.849l6.235 2.76 11.683 5.171a55.4 55.4 0 0 0 18.081 4.569l32.98 2.589a9.03 9.03 0 0 0 8.988-5.406 9.03 9.03 0 0 1 4.09-4.402l30.161-15.81a105.6 105.6 0 0 0 15.793-10.166l3.247-2.525a151.6 151.6 0 0 0 28.63-29.277l3.277-4.413a192 192 0 0 0 16.613-26.692l5.124-9.971 10.333-26.334 4.334-16.333 2.666-15.333.027-.188a263 263 0 0 0 2.64-37.146l-1.459-19.326a222 222 0 0 0-4.708-31.674 219 219 0 0 0-9.244-30.656l-1.089-2.844-.226-.591a211 211 0 0 0-16.107-33.075l-9.5-15.834-10.334-13.833-1.445-1.935a185.6 185.6 0 0 0-19.555-22.232 200 200 0 0 1-19.69-22.128L347.5 382.777l-19.485-21.224a49.27 49.27 0 0 1-8.44-53.966z"/><path fill="#fff28c" d="M270.154 638.502 220 538l-1.238 10.895a78 78 0 0 1-5.589 21.41 78.2 78.2 0 0 0-5.27 18.955l-1.521 10.425a251 251 0 0 0 2.225 53.144l.573 3.847a137.96 137.96 0 0 0 29.198 65.636l3.287 4.049a130.3 130.3 0 0 0 19.198 19.166l16.305 13.194a71.05 71.05 0 0 0 44.693 15.817h33.461c20.76 0 37.59-16.829 37.59-37.589V723.83a131.8 131.8 0 0 1 5.331-37.103 131.77 131.77 0 0 0-14.662-106.884l-52.678-84.381 1.514 27.15c.938 16.824-.02 33.7-2.856 50.31-3.883 22.744-11.384 45.02-21.97 65.522-7.848 15.2-29.799 15.365-37.437.058"/><path fill="#fff28c" d="m498.495 646.089 52.716-96.568 7.5 46 1.501 18.598c0 16.222-1.723 32.398-5.142 48.256l-.747 3.469a125.9 125.9 0 0 1-30.434 58.048l-1.97 2.13a137.4 137.4 0 0 1-21.444 18.807c-21.294 15.073-46.569 24.003-72.613 25.534L357.5 774.5l10.719-15.241a87.85 87.85 0 0 0 13.854-69.802l-.959-4.267a127.24 127.24 0 0 1 20.764-102.089l51.074-71.178-2.971 24.631a204.959 204.959 0 0 0 15.701 106.668l.638 1.46c5.974 13.657 25.033 14.49 32.175 1.407"/></svg>

<svg width="725" height="850" viewBox="0 0 725 850" fill="none" xmlns="http://www.w3.org/2000/svg">
<path d="M308.844 60.9389L320 20.7773L281.75 47.7773L272.917 54.0122C253.443 67.759 236.402 84.6635 222.5 104.027L212 118.652L192 151.777L173.5 189.027C161.26 213.672 153.413 240.262 150.309 267.603L149.75 272.527L144.5 318.777V349.068C144.5 366.839 146.079 384.575 149.219 402.067L155 434.277L138.056 406.037C125.452 385.03 116.669 361.956 112.115 337.885C109.71 325.174 108.5 312.267 108.5 299.331V211.277L91 235.027L73.5 258.777L55.5 288.277L41 318.777L30.5 347.277L20 375.777L12.25 405.027L10.1377 413C6.38562 427.161 3.80566 441.607 2.42395 456.191C0.811707 473.209 0.837952 490.343 2.50226 507.356L4.5 527.777L10.25 555.777C14.0742 574.399 19.7085 592.604 27.0725 610.13L28.5 613.527L30.7921 618.467C38.9118 635.966 48.7004 652.642 60.022 668.261L70 682.027L99 720.777L118.918 741.79C135.908 759.713 155.045 775.47 175.897 788.702L177.622 789.797C190.19 797.773 203.334 804.802 216.945 810.827L227 815.277L237.611 819.974C250.725 825.779 264.909 828.777 279.25 828.777C284.41 828.777 289.561 828.389 294.662 827.616L302.338 826.453C324.955 823.027 346.842 815.856 367.102 805.236L380.51 798.208C392.479 791.933 403.866 784.604 414.533 776.307C430.769 763.679 445.216 748.906 457.479 732.392L462.395 725.772C471.783 713.13 480.117 699.74 487.314 685.735L495 670.777L510.5 631.277L517 606.777L521 583.777L521.985 576.883C523.992 562.83 525 548.653 525 534.457V527.777L522.634 496.423C521.546 482.012 519.418 467.697 516.267 453.592L515.75 451.277L515.287 449.207C512.1 434.94 507.874 420.924 502.643 407.273L500.25 401.027L499.389 398.781C493.142 382.477 485.482 366.748 476.499 351.775L475.75 350.527L461.5 326.777L446 306.027L443.832 303.124C434.958 291.245 425.15 280.094 414.5 269.777L398.5 254.277L352.334 209.6C341.811 199.417 332.463 188.087 324.463 175.821L319.717 168.543C315.915 162.713 312.69 156.526 310.088 150.071C303.785 134.43 301.265 117.521 302.733 100.722L303.75 89.0852C304.581 79.5668 306.287 70.145 308.844 60.9389Z" fill="#FE6323"/>
<path d="M400.273 42.227L388.543 0L428.76 28.3886L438.047 34.9441C458.523 49.3978 476.44 67.1717 491.057 87.5314L502.097 102.909L523.126 137.737L542.577 176.903C555.446 202.815 563.698 230.772 566.961 259.52L567.549 264.697L573.069 313.326V346.547C573.069 364.319 571.489 382.055 568.35 399.547L562.029 434.766L579.844 405.073C593.096 382.986 602.331 358.725 607.119 333.416C609.647 320.052 610.92 306.48 610.92 292.879V200.297L629.32 225.269L647.72 250.24L666.646 281.257L681.891 313.326L692.931 343.291L703.971 373.257L712.12 404.011L714.341 412.394C718.286 427.283 720.999 442.472 722.451 457.806C724.147 475.7 724.119 493.715 722.369 511.603L720.269 533.074L714.223 562.514L714.087 563.177C710.156 582.316 704.366 601.025 696.797 619.038L695.034 623.234L691.996 629.781C683.877 647.281 674.088 663.956 662.767 679.576L651.4 695.257L620.909 736L598.651 759.481C581.661 777.404 562.523 793.161 541.672 806.393L537.272 809.185C524.704 817.161 511.56 824.191 497.949 830.215L486.326 835.36C465.18 844.719 442.312 849.554 419.188 849.554H390.79C371.309 849.554 351.876 847.657 332.764 843.889L289.5 835.36L259.148 826.829C246.408 823.248 235.975 814.09 230.772 801.923C229.594 799.166 228.135 796.539 226.419 794.081L225.593 792.897C215.605 778.592 212.661 760.402 217.515 743.644C221.655 729.354 220.206 713.909 213.406 700.676L204.543 683.429L188.246 641.897L181.411 616.137L177.206 591.954L176.015 583.62C174.008 569.567 173 555.39 173 541.194V533.074L175.572 498.995C176.66 484.583 178.787 470.268 181.939 456.163L182.726 452.64L183.458 449.361C186.646 435.094 190.872 421.078 196.102 407.427L199.023 399.806L200.411 396.184C206.658 379.879 214.318 364.151 223.301 349.178L224.783 346.709L239.766 321.737L256.063 299.92L258.343 296.868C267.673 284.378 277.986 272.653 289.183 261.806L306.006 245.509L354.546 198.534C365.61 187.827 375.439 175.914 383.85 163.018L388.841 155.365C392.838 149.235 396.229 142.731 398.964 135.943C405.591 119.497 408.241 101.719 406.698 84.0558L405.629 71.8208C404.754 61.8129 402.961 51.9066 400.273 42.227Z" fill="#FE6323"/>
<path d="M435.104 281.552L427.667 254.777L452.047 271.987C469.67 284.426 485.089 299.723 497.67 317.246C503.658 325.587 508.974 334.391 513.566 343.576L516.285 349.014C530.429 377.303 539.492 407.857 543.059 439.283L544.667 453.444V490.444L537.667 541.777L575 490.444L582.075 478.856C590.235 465.491 597.336 451.507 603.312 437.033L622 391.777L630.333 420.777L632.863 431.554C636.283 446.127 638.607 460.935 639.817 475.855L641 490.444V529.777V562.111L638 592.777L634.661 609.038C631.783 623.053 627.542 636.753 622 649.944C615.571 663.801 607.82 677.005 598.855 689.373L594.333 695.611L575 721.444L562.307 734.835C550.591 747.194 537.395 758.059 523.017 767.183C514.351 772.683 505.288 777.53 495.902 781.684L489.667 784.444C478.665 790.385 466.593 794.081 454.151 795.318L444.5 796.277L410.5 799.777H370H327.267C324.982 799.777 322.701 799.585 320.448 799.203L304.831 796.554C294.246 794.758 286.5 785.588 286.5 774.851C286.5 770.562 287.753 766.367 290.105 762.78L308.536 734.675C317.681 720.729 318.622 702.944 311 688.111L300.667 661.777L296.333 645.444L293.667 630.111L293.64 629.923C291.882 617.619 291 605.206 291 592.777L292.459 573.451C293.263 562.794 294.836 552.208 297.167 541.777C299.497 531.347 302.586 521.101 306.411 511.121L307.5 508.277L307.726 507.686C312.123 496.213 317.512 485.146 323.833 474.611L333.333 458.777L343.667 444.944L345.112 443.009C351.028 435.089 357.567 427.655 364.667 420.777L375.333 410.444L406.111 380.659C413.126 373.871 419.358 366.317 424.691 358.14L427.856 353.288C430.39 349.401 432.54 345.277 434.274 340.973C438.476 330.546 440.157 319.273 439.178 308.074L438.5 300.316C437.946 293.97 436.809 287.689 435.104 281.552Z" fill="#FFA624"/>
<path d="M327.333 290.777L347.5 242.777L324.621 251.88C308.97 258.106 294.39 266.744 281.411 277.48C270.737 286.308 261.244 296.474 253.165 307.726L248.012 314.904C240.904 324.804 234.595 335.254 229.145 346.154L227.715 349.014C213.571 377.303 204.508 407.857 200.941 439.283L199.333 453.444V490.444L206.333 541.777L169 490.444L161.925 478.856C153.765 465.491 146.664 451.507 140.688 437.033L122 391.777L113.667 420.777L111.137 431.554C107.717 446.127 105.393 460.935 104.183 475.855L103 490.444V529.777V562.111L106 592.777L109.339 609.038C112.217 623.053 116.458 636.753 122 649.944C128.429 663.801 136.18 677.005 145.145 689.373L149.667 695.611L169 721.444L181.693 734.835C193.409 747.194 206.605 758.059 220.983 767.183C229.649 772.683 238.712 777.53 248.098 781.684L254.333 784.444L266.016 789.615C271.742 792.149 277.855 793.694 284.097 794.184L317.077 796.773C320.92 797.075 324.53 794.903 326.065 791.367C326.886 789.475 328.329 787.922 330.155 786.965L360.316 771.155C365.872 768.242 371.157 764.84 376.109 760.989L379.356 758.464C390.18 750.045 399.811 740.196 407.986 729.187L411.263 724.774C417.522 716.346 423.078 707.419 427.876 698.082L433 688.111L443.333 661.777L447.667 645.444L450.333 630.111L450.36 629.923C452.118 617.619 453 605.206 453 592.777L451.541 573.451C450.737 562.794 449.164 552.208 446.833 541.777C444.503 531.347 441.414 521.101 437.589 511.121L436.5 508.277L436.274 507.686C431.877 496.213 426.488 485.146 420.167 474.611L410.667 458.777L400.333 444.944L398.888 443.009C392.972 435.089 386.433 427.655 379.333 420.777C372.232 413.898 365.65 406.502 359.643 398.649L347.5 382.777L328.015 361.553C322.428 355.467 318.461 348.074 316.479 340.054C313.795 329.194 314.887 317.744 319.575 307.587L327.333 290.777Z" fill="#FFA624"/>
<path d="M270.154 638.502L220 538L218.762 548.895C217.925 556.261 216.043 563.47 213.173 570.305C210.625 576.376 208.854 582.745 207.903 589.26L206.382 599.685C205.239 617.428 205.985 635.243 208.607 652.829L209.18 656.676C212.946 680.749 223.02 703.396 238.378 722.312L241.665 726.361C247.38 733.4 253.814 739.824 260.863 745.527L277.168 758.721C289.815 768.955 305.592 774.538 321.861 774.538L355.322 774.538C376.082 774.538 392.912 757.709 392.912 736.949L392.912 723.83C392.912 711.271 394.707 698.777 398.243 686.727C408.833 650.639 403.497 611.746 383.581 579.843L330.903 495.462L332.417 522.612C333.355 539.436 332.397 556.312 329.561 572.922C325.678 595.666 318.177 617.942 307.591 638.444C299.743 653.644 277.792 653.809 270.154 638.502Z" fill="#FFF28C"/>
<path d="M498.495 646.089L551.211 549.521L558.711 595.521L560.212 614.119C560.212 630.341 558.489 646.517 555.07 662.375L554.323 665.844C549.482 687.541 538.981 707.569 523.889 723.892L521.919 726.022C515.465 733.002 508.234 739.336 500.475 744.829C479.181 759.902 453.906 768.832 427.862 770.363L357.5 774.5L368.219 759.259C378.626 744.462 384.211 726.813 384.211 708.722C384.211 702.241 383.494 695.78 382.073 689.457L381.114 685.19C373.149 649.756 380.705 612.608 401.878 583.101L452.952 511.923L449.981 536.554C448.14 551.817 448.023 567.238 449.63 582.528C451.832 603.463 457.246 623.935 465.682 643.222L466.32 644.682C472.294 658.339 491.353 659.172 498.495 646.089Z" fill="#FFF28C"/>
</svg>
